src/assets/icons/Vimeo.svg

<?xml version="1.0" encoding="UTF-8"?>
<svg width="24px" height="24px" viewBox="0 0 24 24" version="1.1" xmlns="http://www.w3.org/2000/svg" xmlns:xlink="http://www.w3.org/1999/xlink">
    <!-- Generator: Sketch 60 (88103) - https://sketch.com -->
    <title>09 Icons / Social / Vimeo</title>
    <desc>Created with Sketch.</desc>
    <g stroke="none" stroke-width="1" fill="none" fill-rule="evenodd">
        <path d="M23.98824,6.89216 C23.88144,9.23288 22.24968,12.43808 19.09368,16.50608 C15.83064,20.75552 13.06992,22.88 10.81152,22.88 C9.41304,22.88 8.22864,21.5864 7.26192,18.99824 C6.61584,16.62584 5.97048,14.25368 5.32464,11.88128 C4.60632,9.29456 3.83616,7.99952 3.01272,7.99952 C2.8332,7.99952 2.20488,8.378 1.1292,9.13208 L0,7.67456 C1.1844,6.63176 2.35296,5.5892 3.50256,4.5452 C5.08224,3.17744 6.26808,2.45816 7.0584,2.38544 C8.92632,2.20568 10.07592,3.48488 10.50744,6.22328 C10.97376,9.17768 11.29632,11.01536 11.47776,11.73464 C12.01608,14.18576 12.6084,15.40976 13.25568,15.40976 C13.758,15.40976 14.51256,14.61488 15.51864,13.02512 C16.52376,11.43488 17.06208,10.22504 17.1348,9.39392 C17.27784,8.0216 16.73928,7.33376 15.51864,7.33376 C14.94408,7.33376 14.35176,7.46624 13.7424,7.72808 C14.92176,3.85712 17.17536,1.9772 20.50176,2.08448 C22.96776,2.15696 24.13032,3.75944 23.98824,6.89216" fill="#000000"></path>
    </g>
</svg>

<svg width="24" height="24" viewBox="0 0 24 24" xmlns="http://www.w3.org/2000/svg"><path d="M23.988 6.892c-.107 2.34-1.738 5.546-4.894 9.614-3.263 4.25-6.024 6.374-8.282 6.374-1.399 0-2.583-1.294-3.55-3.882l-1.937-7.117C4.606 9.295 3.836 8 3.013 8c-.18 0-.808.378-1.884 1.132L0 7.675a305.372 305.372 0 003.503-3.13c1.58-1.368 2.765-2.087 3.555-2.16 1.868-.18 3.018 1.1 3.45 3.838.466 2.955.788 4.792.97 5.512.538 2.45 1.13 3.675 1.778 3.675.502 0 1.257-.795 2.263-2.385 1.005-1.59 1.543-2.8 1.616-3.631.143-1.372-.396-2.06-1.616-2.06-.575 0-1.167.132-1.777.394 1.18-3.87 3.433-5.75 6.76-5.644 2.466.073 3.628 1.675 3.486 4.808" fill="#000" fill-rule="evenodd"/></svg>
